lib/build/svg/brand/microsoft.svg

<svg width="24" height="24" viewBox="0 0 24 24" fill="none" xmlns="http://www.w3.org/2000/svg">
  <path d="M11.5 2H2v9.5h9.5V2z" fill="#F25022"/>
  <path d="M22 2h-9.5v9.5H22V2z" fill="#7FBA00"/>
  <path d="M11.5 12.5H2V22h9.5v-9.5z" fill="#00A4EF"/>
  <path d="M22 12.5h-9.5V22H22v-9.5z" fill="#FFB900"/>
</svg>

<svg width="24" height="24" viewBox="0 0 24 24" fill="none" xmlns="http://www.w3.org/2000/svg">
<path d="M11.5 2H2V11.5H11.5V2Z" fill="#F25022"/>
<path d="M22 2H12.5V11.5H22V2Z" fill="#7FBA00"/>
<path d="M11.5 12.5H2V22H11.5V12.5Z" fill="#00A4EF"/>
<path d="M22 12.5H12.5V22H22V12.5Z" fill="#FFB900"/>
</svg>
